svg/Pictogram/pictograms-nps-water-seal_viewing.svg

<svg xmlns="http://www.w3.org/2000/svg" viewBox="0 0 256 256"><path d="m0 0c-.517 0-.937-.419-.937-.935v-7.232c0-.517.42-.937.937-.937h7.231c.516 0 .935.42.935.937v7.232c0 .516-.419.935-.935.935h-7.231" fill="#fff" transform="matrix(26.93886 0 0-26.93886 30.616 5.369)"/><path d="m0 0c.627 0 1.135.51 1.135 1.137v7.232c0 .627-.508 1.135-1.135 1.135h-7.231c-.629 0-1.137-.508-1.137-1.135v-7.232c0-.627.508-1.137 1.137-1.137h7.231" transform="matrix(26.93886 0 0-26.93886 225.42 256)"/><path d="m0 0v-1.842c0-.451-.135-.869-.371-1.219.047-.058.092-.128.131-.218.115-.262.056-.555-.125-.752l-.942-.977c-.015-.021-.039-.041-.066-.053-.08-.035-.172.002-.205.081-.016.035-.018.072-.008.105l.197.996c-.248-.096-.517-.148-.799-.148l-2.115.002c.567-.387.567-1.139.565-1.153-.004-.052-.001-.092-.026-.138-.021-.061-.06-.127-.15-.1l-1.286 1.012c-.59.422-1.094 1.121-.846 1.84.172.49.66.695 1.137.779l2.68.539 1.168 2.1c.143.248.518.427.768.41.252-.018.434-.086.611-.241l.578-.123c.061-.004.106-.054.102-.115l-.064-.234c-.022-.053-.045-.092-.094-.125l-.84-.426" fill="#fff" transform="matrix(26.93886 0 0-26.93886 200.8 76.43)"/></svg>

<?xml version="1.0" encoding="UTF-8" standalone="no"?>
<!-- Created with Inkscape (http://www.inkscape.org/) -->
<svg
   xmlns:dc="http://purl.org/dc/elements/1.1/"
   xmlns:cc="http://creativecommons.org/ns#"
   xmlns:rdf="http://www.w3.org/1999/02/22-rdf-syntax-ns#"
   xmlns:svg="http://www.w3.org/2000/svg"
   xmlns="http://www.w3.org/2000/svg"
   xmlns:sodipodi="http://sodipodi.sourceforge.net/DTD/sodipodi-0.dtd"
   xmlns:inkscape="http://www.inkscape.org/namespaces/inkscape"
   width="256"
   height="256"
   id="svg5294"
   sodipodi:version="0.32"
   inkscape:version="0.46"
   version="1.0"
   sodipodi:docname="pictograms-nps-water-seal_viewing-2.svg"
   inkscape:output_extension="org.inkscape.output.svg.inkscape">
  <defs
     id="defs5296">
    <inkscape:perspective
       sodipodi:type="inkscape:persp3d"
       inkscape:vp_x="0 : 526.18109 : 1"
       inkscape:vp_y="0 : 1000 : 0"
       inkscape:vp_z="744.09448 : 526.18109 : 1"
       inkscape:persp3d-origin="372.04724 : 350.78739 : 1"
       id="perspective5302" />
  </defs>
  <sodipodi:namedview
     id="base"
     pagecolor="#ffffff"
     bordercolor="#666666"
     borderopacity="1.0"
     gridtolerance="10000"
     guidetolerance="10"
     objecttolerance="10"
     inkscape:pageopacity="0.0"
     inkscape:pageshadow="2"
     inkscape:zoom="1.4"
     inkscape:cx="124.57192"
     inkscape:cy="109.97938"
     inkscape:document-units="px"
     inkscape:current-layer="layer1"
     showgrid="false"
     inkscape:window-width="747"
     inkscape:window-height="674"
     inkscape:window-x="0"
     inkscape:window-y="309" />
  <metadata
     id="metadata5299">
    <rdf:RDF>
      <cc:Work
         rdf:about="">
        <dc:format>image/svg+xml</dc:format>
        <dc:type
           rdf:resource="http://purl.org/dc/dcmitype/StillImage" />
      </cc:Work>
    </rdf:RDF>
  </metadata>
  <g
     inkscape:label="Layer 1"
     inkscape:groupmode="layer"
     id="layer1">
    <g
       id="g4642"
       transform="matrix(26.938861,0,0,-26.938861,30.615908,5.3692383)">
      <path
         d="M 0,0 C -0.517,0 -0.937,-0.419 -0.937,-0.935 L -0.937,-8.167 C -0.937,-8.684 -0.517,-9.104 0,-9.104 L 7.231,-9.104 C 7.747,-9.104 8.166,-8.684 8.166,-8.167 L 8.166,-0.935 C 8.166,-0.419 7.747,0 7.231,0 L 0,0 z"
         style="fill:#ffffff;fill-opacity:1;fill-rule:nonzero;stroke:none"
         id="path4644" />
    </g>
    <g
       id="g4646"
       transform="matrix(26.938861,0,0,-26.938861,225.42439,256)">
      <path
         d="M 0,0 C 0.627,0 1.135,0.51 1.135,1.137 L 1.135,8.369 C 1.135,8.996 0.627,9.504 0,9.504 L -7.231,9.504 C -7.86,9.504 -8.368,8.996 -8.368,8.369 L -8.368,1.137 C -8.368,0.51 -7.86,0 -7.231,0 L 0,0 z"
         style="fill:#000000;fill-opacity:1;fill-rule:nonzero;stroke:none"
         id="path4648" />
    </g>
    <g
       id="g4650"
       transform="matrix(26.938861,0,0,-26.938861,200.7999,76.42555)">
      <path
         d="M 0,0 L 0,-1.842 C 0,-2.293 -0.135,-2.711 -0.371,-3.061 C -0.324,-3.119 -0.279,-3.189 -0.24,-3.279 C -0.125,-3.541 -0.184,-3.834 -0.365,-4.031 L -1.307,-5.008 C -1.322,-5.029 -1.346,-5.049 -1.373,-5.061 C -1.453,-5.096 -1.545,-5.059 -1.578,-4.98 C -1.594,-4.945 -1.596,-4.908 -1.586,-4.875 L -1.389,-3.879 C -1.637,-3.975 -1.906,-4.027 -2.188,-4.027 L -4.303,-4.025 C -3.736,-4.412 -3.736,-5.164 -3.738,-5.178 C -3.742,-5.23 -3.748,-5.27 -3.764,-5.316 C -3.785,-5.377 -3.824,-5.443 -3.914,-5.416 L -5.2,-4.404 C -5.79,-3.982 -6.294,-3.283 -6.046,-2.564 C -5.874,-2.074 -5.386,-1.869 -4.909,-1.785 L -2.229,-1.246 L -1.061,0.854 C -0.918,1.102 -0.543,1.281 -0.293,1.264 C -0.041,1.246 0.141,1.178 0.318,1.023 L 0.896,0.9 C 0.957,0.896 1.002,0.846 0.998,0.785 L 0.934,0.551 C 0.912,0.498 0.889,0.459 0.84,0.426 L 0,0 z"
         style="fill:#ffffff;fill-opacity:1;fill-rule:nonzero;stroke:none"
         id="path4652" />
    </g>
  </g>
</svg>
